icons/2_Variations/Adafruit bg.var.svg

<svg width="1024" height="1024" fill="none" xmlns="http://www.w3.org/2000/svg"><g clip-path="url(#a)"><path d="M512 1024c282.77 0 512-229.23 512-512S794.77 0 512 0 0 229.23 0 512s229.23 512 512 512Z" fill="#728DBE"/><path d="M779.66 469.45c-1.68-10.5-7.36-13.49-21.09-17.89-10.43-3.34-80.29-25.6-80.29-25.6s-48.66-18.37-84.76 7.63c-4.86 3.49-9.88 7.49-14.95 11.75 4.26-5.07 8.23-10.1 11.73-15 25.93-36.13 7.46-84.78 7.46-84.78s-22.35-69.77-25.76-80.19c-4.43-13.72-7.42-19.39-17.91-21-10.49-1.61-15.09 2.82-23.51 14.52-6.41 8.88-49.16 68.43-49.16 68.43s-32.52 40.62-18.94 83c1.83 5.71 4.07 11.72 6.56 17.85-3.51-5.62-7.07-11-10.62-15.79C432.11 376.5 380.15 379 380.15 379s-73.3-.29-84.27-.32c-14.4 0-20.73 1.07-25.55 10.53-4.82 9.46-2 15.23 6.55 26.85 6.47 8.84 49.89 67.9 49.89 67.9s28.59 43.47 73.06 43.66c6 0 12.38-.24 19-.72-6.41 1.6-12.58 3.34-18.24 5.21-42.22 14-55.88 64.19-55.88 64.19s-22.92 69.63-26.34 80c-4.48 13.69-5.4 20 2.12 27.56 7.52 7.56 13.84 6.65 27.51 2.14 10.41-3.42 80-26.48 80-26.48s50.18-13.76 64.09-56c1.87-5.67 3.59-11.82 5.17-18.23-.45 6.58-.71 13-.68 18.94.26 44.48 43.78 73 43.78 73l68 49.78c11.64 8.48 17.41 11.32 26.87 6.49s10.54-11.16 10.48-25.57c0-10.95-.46-84.26-.46-84.26s2.44-52-33.44-78.25c-4.82-3.53-10.14-7.08-15.76-10.57 6.13 2.48 12.13 4.7 17.82 6.51 42.38 13.5 82.93-19.08 82.93-19.08s59.51-42.88 68.38-49.28c11.67-8.46 16.15-13.07 14.48-23.55Zm-252.48-54c8 1.25 12 18.26 8.85 38-3.15 19.74-12.1 34.68-20.1 33.42-8-1.26-12-18.26-8.86-38 3.14-19.74 12.11-34.67 20.11-33.4v-.02Zm-102.4 52.29c3.67-7.22 21.07-5.73 38.86 3.32s29.25 22.23 25.58 29.44c-3.67 7.21-21.07 5.74-38.87-3.3-17.8-9.04-29.24-22.2-25.57-29.44v-.02Zm54 98.34c-14.1 14.12-30.18 20.94-35.92 15.21-5.74-5.73 1.07-21.8 15.17-35.93 14.1-14.13 30.18-20.95 35.91-15.22 5.73 5.73-1.06 21.86-15.16 35.95v-.01Zm77.67 33.11c-7.22 3.68-20.41-7.74-29.49-25.52-9.08-17.78-10.6-35.18-3.38-38.86 7.22-3.68 20.41 7.75 29.49 25.52 9.08 17.77 10.59 35.18 3.38 38.87v-.01Zm18.72-82.34c-19.71 3.14-36.72-.8-38-8.78-1.28-7.98 13.68-17 33.39-20.16s36.72.79 38 8.79c1.28 8-13.67 17.02-33.39 20.16v-.01Z" fill="#fff"/></g><defs><clipPath id="a"><path fill="#fff" d="M0 0h1024v1024H0z"/></clipPath></defs></svg>

<svg width="1024" height="1024" viewBox="0 0 1024 1024" fill="none" xmlns="http://www.w3.org/2000/svg">
<g clip-path="url(#clip0_3_374)">
<path d="M512 1024C794.77 1024 1024 794.77 1024 512C1024 229.23 794.77 0 512 0C229.23 0 0 229.23 0 512C0 794.77 229.23 1024 512 1024Z" fill="#728DBE"/>
<path d="M779.66 469.45C777.98 458.95 772.3 455.96 758.57 451.56C748.14 448.22 678.28 425.96 678.28 425.96C678.28 425.96 629.62 407.59 593.52 433.59C588.66 437.08 583.64 441.08 578.57 445.34C582.83 440.27 586.8 435.24 590.3 430.34C616.23 394.21 597.76 345.56 597.76 345.56C597.76 345.56 575.41 275.79 572 265.37C567.57 251.65 564.58 245.98 554.09 244.37C543.6 242.76 539 247.19 530.58 258.89C524.17 267.77 481.42 327.32 481.42 327.32C481.42 327.32 448.9 367.94 462.48 410.32C464.31 416.03 466.55 422.04 469.04 428.17C465.53 422.55 461.97 417.17 458.42 412.38C432.11 376.5 380.15 379 380.15 379C380.15 379 306.85 378.71 295.88 378.68C281.48 378.68 275.15 379.75 270.33 389.21C265.51 398.67 268.33 404.44 276.88 416.06C283.35 424.9 326.77 483.96 326.77 483.96C326.77 483.96 355.36 527.43 399.83 527.62C405.83 527.62 412.21 527.38 418.83 526.9C412.42 528.5 406.25 530.24 400.59 532.11C358.37 546.11 344.71 596.3 344.71 596.3C344.71 596.3 321.79 665.93 318.37 676.3C313.89 689.99 312.97 696.3 320.49 703.86C328.01 711.42 334.33 710.51 348 706C358.41 702.58 428 679.52 428 679.52C428 679.52 478.18 665.76 492.09 623.52C493.96 617.85 495.68 611.7 497.26 605.29C496.81 611.87 496.55 618.29 496.58 624.23C496.84 668.71 540.36 697.23 540.36 697.23L608.36 747.01C620 755.49 625.77 758.33 635.23 753.5C644.69 748.67 645.77 742.34 645.71 727.93C645.71 716.98 645.25 643.67 645.25 643.67C645.25 643.67 647.69 591.67 611.81 565.42C606.99 561.89 601.67 558.34 596.05 554.85C602.18 557.33 608.18 559.55 613.87 561.36C656.25 574.86 696.8 542.28 696.8 542.28C696.8 542.28 756.31 499.4 765.18 493C776.85 484.54 781.33 479.93 779.66 469.45ZM527.18 415.45C535.18 416.7 539.18 433.71 536.03 453.45C532.88 473.19 523.93 488.13 515.93 486.87C507.93 485.61 503.93 468.61 507.07 448.87C510.21 429.13 519.18 414.2 527.18 415.47V415.45ZM424.78 467.74C428.45 460.52 445.85 462.01 463.64 471.06C481.43 480.11 492.89 493.29 489.22 500.5C485.55 507.71 468.15 506.24 450.35 497.2C432.55 488.16 421.11 475 424.78 467.76V467.74ZM478.78 566.08C464.68 580.2 448.6 587.02 442.86 581.29C437.12 575.56 443.93 559.49 458.03 545.36C472.13 531.23 488.21 524.41 493.94 530.14C499.67 535.87 492.88 552 478.78 566.09V566.08ZM556.45 599.19C549.23 602.87 536.04 591.45 526.96 573.67C517.88 555.89 516.36 538.49 523.58 534.81C530.8 531.13 543.99 542.56 553.07 560.33C562.15 578.1 563.66 595.51 556.45 599.2V599.19ZM575.17 516.85C555.46 519.99 538.45 516.05 537.17 508.07C535.89 500.09 550.85 491.07 570.56 487.91C590.27 484.75 607.28 488.7 608.56 496.7C609.84 504.7 594.89 513.72 575.17 516.86V516.85Z" fill="white"/>
</g>
<defs>
<clipPath id="clip0_3_374">
<rect width="1024" height="1024" fill="white"/>
</clipPath>
</defs>
</svg>
